!!!COM: Bach, Johann Sebastian
!!!OTA: Das wohltemperirte Clavier
!!!OPR: Das wohltemperierte Klavier
!!!OTL: Fuga 7, Vol. 1
!!!XEN: The Well-Tempered Clavier, Volume 1, Fugue 7.
!!!ONB: E-flat major, 3-part
!!!SCT: BWV 852b
!!!YEC: Copyright 1994, David Huron
!!!YEM: Rights to all derivative electronic formats reserved.
!!!RNB: The texture increases to four voices in the final measure.
**kern	**kern	**kern
*staff2	*staff1	*staff1
*clefF4	*clefG2	*clefG2
*k[b-e-a-]	*k[b-e-a-]	*k[b-e-a-]
*M4/4	*M4/4	*M4/4
*E-:	*E-:	*E-:
*MM84	*MM84	*MM84
=1	=1	=1
1r	1r	16b-
.	.	16g
.	.	16f
.	.	16g
.	.	16e-
.	.	16a-
.	.	16g
.	.	16a-
.	.	8cc
.	.	8b-
.	.	8r
.	.	16an
.	.	16f
=2	=2	=2
1r	1r	8ee-
.	.	8dd
.	.	4ccT
.	.	16b-
.	.	16ff
.	.	16dd
.	.	16b-
.	.	16a-
.	.	16ff
.	.	16dd
.	.	16a-
=3	=3	=3
1r	16e-	8g
.	16d	.
.	16c	8aa-
.	16d	.
.	16B-	8gg
.	16e-	.
.	16d	8ff
.	16e-	.
.	8g	16ee-
.	.	16cc
.	8f	16dd
.	.	16ee-
.	8r	[4ff
.	16d	.
.	16B-	.
=4	=4	=4
1r	8a-	16ff]
.	.	16ee-
.	8g	16ff
.	.	16gg
.	4fT	16aa-
.	.	16ff
.	.	16b-
.	.	16aa-
.	16e-	8gg
.	16b-	.
.	16g	16ee-
.	16f	16gg
.	16e-	[4ccc
.	16cc	.
.	16an	.
.	16f	.
=5	=5	=5
1r	16d	8ccc]
.	16an	.
.	16f	16dd
.	16e-	16ff
.	16d-	[4bb-
.	16b-	.
.	16g	.
.	16e-	.
.	16c	8bb-]
.	16g	.
.	16e-	16cc
.	16c	16ee-
.	16dn	8aa-
.	16b-	.
.	16e-	8gg
.	16cc	.
=6	=6	=6
16B-	8dd	4ff
16G	.	.
16F	8dd-	.
16G	.	.
16E-	8cc	8gg
16A-	.	.
16G	8b-	8ddn
16A-	.	.
8c	16a-	4.ee-
.	16g	.
8B-	16a-	.
.	16b-	.
8r	[4cc	.
16An	.	8ff
16F	.	.
=7	=7	=7
8e-	16cc]	4.gg
.	16b-	.
8d	16cc	.
.	16dd	.
4cT	16ee-	.
.	16cc	.
.	16f	8aan
.	16ee-	.
16B-	8dd	[2bb-
16f	.	.
16d	8ff	.
16B-	.	.
16A-	8dd	.
16f	.	.
16d	8b-	.
16A-	.	.
=8	=8	=8
8G	8ee-	16bb-]
.	.	16bb-
8e-	8r	16gg
.	.	16ee-
8r	4r	16dd-
.	.	16bb-
8E-	.	16gg
.	.	16dd-
16A-	8r	8cc
16e-	.	.
16c	8ee-	8ee-
16A-	.	.
16G	8cc	[4aa-
16e-	.	.
16c	8a-	.
16G	.	.
=9	=9	=9
8F	8dd	16aa-]
.	.	16aa-
8d	8r	16ff
.	.	16dd
8r	4r	16cc
.	.	16aa-
8D	.	16ff
.	.	16cc
16G	8r	8b-
16d	.	.
16B-	8dd	8dd
16G	.	.
16F	8b-	[4gg
16d-	.	.
16B-	8g	.
16G	.	.
=10	=10	=10
16En	8cc	4gg_
16c	.	.
16G	8b-	.
16E	.	.
16F	[4a-	16gg]
16c	.	16cc
16A-	.	16dd
16F	.	16ee-
16D	16a-]	4.ff
16B-	16cc	.
16F	16b-	.
16D	16a-	.
16E-	4g	.
16B-	.	.
16G	.	[8ee-
16E-	.	.
=11	=11	=11
8BB-	4f	16ee-]
.	.	16dd
8A-	.	16cc
.	.	16dd
8G	[4b-	16b-
.	.	16ee-
8F	.	16dd
.	.	16ee-
16E-	8b-]	8gg
16C	.	.
16D	16a-	8ff
16E-	16g	.
[4F	8a-	8r
.	8f	16dd
.	.	16b-
=12	=12	=12
16F]	8d	8aa-
16E-	.	.
16F	4ee-	8gg
16G	.	.
16A-	.	4ff
16F	.	.
16BB-	8dd	.
16A-	.	.
8G	8ee-	16ee-
.	.	16bb-
8B-	8r	16gg
.	.	16ee-
8G	[4e-	16dd-
.	.	16bb-
8E-	.	16gg
.	.	16dd-
=13	=13	=13
8A-	16e-]	8cc
.	16e-	.
8r	16c	8aa-
.	16A-	.
4r	16G	8r
.	16e-	.
.	16c	8a-
.	16G	.
8r	8F	16dd
.	.	16aa-
8A-	8A-	16ff
.	.	16dd
8F	[4d	16cc
.	.	16aa-
8D	.	16ff
.	.	16cc
=14	=14	=14
8G	16d]	8bn
.	16d	.
8r	16Bn	8gg
.	16G	.
4r	16F	8r
.	16d	.
.	16B	8g
.	16F	.
8r	8En	16cc
.	.	16gg
8G	8G	16een
.	.	16cc
8En	[4c	16b-
.	.	16gg
8C	.	16ee
.	.	16b-
=15	=15	=15
8F	4c]	16an
.	.	16gg
8E-	.	16cc
.	.	16g
8D	8Bn	16a-
.	.	16ff
8C	8c	16dd
.	.	16a-
8BBn	8d	16g
.	.	16ff
8GG	8r	16dd
.	.	16bn
8C	4r	16g
.	.	16ee-
8BB-	.	16cc
.	.	16g
=16	=16	=16
8AAn	1r	16f#
.	.	16ee-
8An	.	16cc
.	.	16an
8Bn	.	16fn
.	.	16dd
8G	.	16bn
.	.	16f
8c	.	16en
.	.	16dd
8G	.	16b
.	.	16g
8A-	.	16e-
.	.	16cc
8E-	.	16g
.	.	16e-
=17	=17	=17
8F	2r	16d
.	.	16cc
16E-	.	16a-
16F	.	16f
8G	.	16d
.	.	16bn
8GG	.	16an
.	.	16b
8C	16c	8cc
.	16B-	.
8r	16A-	8ff
.	16B-	.
4r	16G	8ee-
.	16c	.
.	16Bn	8dd
.	16c	.
=18	=18	=18
1r	8e-	16cc
.	.	16an
.	8d	16bn
.	.	16cc
.	8r	[4dd
.	16Bn	.
.	16G	.
.	8f	16dd]
.	.	16cc
.	8e-	16dd
.	.	16ee-
.	4dT	16ff
.	.	16dd
.	.	16g
.	.	16ff
=19	=19	=19
1r	16c	16ee-
.	16Bn	16gg
.	16c	16ee-
.	16e-	16dd
.	[4a-	16cc
.	.	16ccc
.	.	16aa-
.	.	16ff
.	8a-]	16dd
.	.	16ff
.	16B-	16dd
.	16d	16cc
.	[4g	16b-
.	.	16bb-
.	.	16gg
.	.	16ee-
=20	=20	=20
2r	8g]	16cc
.	.	16ee-
.	16A-	16cc
.	16c	16b-
.	[4f	16a-
.	.	16aa-
.	.	16ff
.	.	16dd
16G	16f]	4bn
16E-	16g	.
16D	4a-	.
16E-	.	.
16C	.	[4cc
16F	.	.
16E-	8g	.
16F	.	.
=21	=21	=21
8A-	16f	8cc]
.	16e-	.
8G	16f	8bn
.	16g	.
8r	[4an	16cc
.	.	16b
16F#	.	16cc
16D	.	16dd
8c	16a]	8ee-
.	16g	.
8B-	16a	8dd
.	16b-	.
4AnT	16cc	8een
.	16a	.
.	16d	8ff#
.	16cc	.
=22	=22	=22
16G	4b-	16gg
16B-	.	16dd
16A-	.	16cc
16B-	.	16dd
16G	[4b-	16b-
16A-	.	16een
16F	.	16dd
16G	.	16ee
16En	16b-]	8gg
16c	16dd-	.
16A-	16cc	8ff
16F	16b-	.
16C	16a-	4r
16F	16g	.
16C	16f	.
16AA-	16g	.
=23	=23	=23
16FF	4a-	16ff
16A-	.	16cc
16G	.	16b-
16A-	.	16cc
16F	[4a-	16a-
16G	.	16dd
16E-	.	16cc
16F	.	16dd
16D	16a-]	8ff
16B-	16cc	.
16G	16b-	8ee-
16E-	16a-	.
16BB-	16g	4r
16E-	16f	.
16BB-	16e-	.
16GG	16f	.
=24	=24	=24
8EE-	4g	16r
.	.	16b-
8E-	.	16ee-
.	.	16cc
8F	16r	4dd-
.	16b-	.
8G	16g	.
.	16e-	.
8A-	8A-	16r
.	.	16cc
8F	8r	16ff
.	.	16ddn
8G	16r	4ee-
.	16cc	.
8An	16an	.
.	16f	.
=25	=25	=25
8B-	8B-	16r
.	.	16dd
8G	8r	16gg
.	.	16ee-
8An	16r	4ff
.	16dd	.
8Bn	16bn	.
.	16g	.
8c	8c	16r
.	.	16ee-
8C	8r	16gg
.	.	16bb-
8D	4r	16aa-
.	.	16ff
[8E-	.	16b-
.	.	16gg
=26	=26	=26
16E-]	8r	8ff
16D	.	.
16C	8ff	8aa-
16D	.	.
16BB-	8ee-	8gg
16E-	.	.
16D	8a-	8ff
16E-	.	.
8G	8b-	16ee-
.	.	16cc
8F	16a-	16dd
.	16g	16ee-
8r	16a-	[4ff
.	16dd	.
16D	16b-	.
16BB-	16f	.
=27	=27	=27
8A-	8d	16ff]
.	.	16ee-
8G	4e-	16ff
.	.	16gg
4F	.	16aa-
.	.	16ff
.	8d	16b-
.	.	16aa-
8E-	8e-	16gg
.	.	16bb-
8EE-	8r	16gg
.	.	16ee-
8FF	16r	4dd-
.	16b-	.
8GG	16g	.
.	16e-	.
=28	=28	=28
8AA-	8A-	16cc
.	.	16ccc
8FF	8r	16aa-
.	.	16ff
8GG	16r	4ee-
.	16cc	.
8AAn	16an	.
.	16f	.
8BB-	8B-	16dd
.	.	16ff
8BB-	8r	16dd
.	.	16b-
8C	16r	[4a-
.	16f	.
8D	16d	.
.	16B-	.
=29	=29	=29
[2.E-	8E-	16a-]
.	.	16g
.	8d-	16f
.	.	16g
.	8c	16e-
.	.	16a-
.	8B-	16g
.	.	16a-
.	16A-	8cc
.	16G	.
.	16A-	8b-
.	16B-	.
16E-]	[4c	8r
16Dn	.	.
16E-	.	16an
16F	.	16f
=30	=30	=30
8.G	16c]	8ee-
.	16B-	.
.	16c	8dd
16F	16d	.
8E-	16e-	4ccT
.	16c	.
8F	16F	.
.	16e-	.
16BB-	8d	8b-
16F	.	.
16D	8r	8ff
16BB-	.	.
16AA-	4r	8dd
16F	.	.
16D	.	8b-
16AA-	.	.
=31	=31	=31
8GG	16r	[2bb-
.	16b-	.
8G	16ee-	.
.	16gg	.
8r	16dd-	.
.	16b-	.
8EE-	16dd-	.
.	16gg	.
16AA-	8cc	8bb-]
16E-	.	.
16C	8r	8ee-
16AA-	.	.
16GG	4r	8cc
16E-	.	.
16C	.	8a-
16GG	.	.
=32	=32	=32
8FF	16r	[2aa-
.	16a-	.
8F	16dd	.
.	16ff	.
8r	16cc	.
.	16a-	.
8DD	16cc	.
.	16ff	.
16GG	8b-	8aa-]
16D	.	.
16BB-	8r	8dd
16GG	.	.
16FF	4r	8b-
16D	.	.
16BB-	.	8g
16FF	.	.
=33	=33	=33
16EEn	8r	[4gg
16C	.	.
16GG	8b-	.
16EE	.	.
16FF	2a-	16gg]
16C	.	16cc
16AA-	.	16dd
16FF	.	16ee-
16DD	.	16ff
16BB-	.	16ee-
16FF	.	16dd
16DD	.	16cc
16EE-	8g	16b-
16BB-	.	16a-
16GG	[8e-	16b-
16EE-	.	16cc
=34	=34	=34
8BB-	16e-]	4f
.	16d	.
8F	16c	.
.	16d	.
8D	16B-	8r
.	16e-	.
8BB-	16d	8f
.	16e-	.
8An	8g-	8ee-
8A-	8f	8dd
16r	8r	4r
16A-	.	.
16F	16d	.
16D	16B-	.
=35	=35	=35
8BB-	8a-	8ff
8E-	8g	4ee-
8B-	4f	.
8Bn	.	8dd
[4c	4e-	16ee-
.	.	16gg
.	.	16ee-
.	.	16cc
16c]	8r	[4a-
16c	.	.
16A-	8f	.
16F	.	.
=36	=36	=36
8D	4.B-	16a-]
.	.	16ff
8BB-	.	16dd
.	.	16b-
16r	.	8g
16E-	.	.
16C	[8f	8ee-
16AA-	.	.
2BB-	16f]	4g
.	16d	.
.	16e-	.
.	[16B-	.
.	16B-]	4f
.	16c	.
.	16d	.
.	[16A-	.
=37	=37	=37
*	*	*^
!! Four-voice material to the end:
1EE-;	16A-]	16r	1e-;
.	16d-	8.d-	.
.	16B-	.	.
.	[16G	.	.
.	16G]	8.c	.
.	16A-	.	.
.	8F	.	.
.	.	16c-	.
.	2G;	2B-;	.
==	==	==	==
*-	*-	*-	*-
!!!CDT: 1685/3/-1750/7/28
!!!OCY: Deutschland
!!!PPP: Coethen; Cothen; Co2then
!!!ODT: <1722//
!!!PDT: 1722
!!!AFR: fuga; fugue
!!!AST: polyphony
!!!AMT: simple quadruple
!!!SCA: Bach-Werke-Verzeichnis
!!!YOR: Bach Gesellschaft
!!!SMS: British Library, various
!!!AIN: cemba; clavi
!!!EEV: 1.0
!!!RDT: 1986 November 17
!!!YER: 1994 August 10
!!!EFL: 7/48
!!!VTS: 3545895640
